(G-CODE GENERATED BY FLATCAM v8.994 - www.flatcam.org - Version Date: 2020/11/7)

(Name: pi-relay-board-PTH.drl_cnc)
(Type: G-code from Geometry)
(Units: MM)

(Created on Friday, 07 June 2024 at 10:04)

(This preprocessor is used with MACH3 with probing height.)


(TOOLS DIAMETER: )
(Tool: 1 -> Dia: 0.75)
(Tool: 2 -> Dia: 0.8)
(Tool: 3 -> Dia: 1.0)
(Tool: 4 -> Dia: 1.2)

(FEEDRATE Z: )
(Tool: 1 -> Feedrate: 300)
(Tool: 2 -> Feedrate: 300)
(Tool: 3 -> Feedrate: 300)
(Tool: 4 -> Feedrate: 300)

(FEEDRATE RAPIDS: )
(Tool: 1 -> Feedrate Rapids: 1500)
(Tool: 2 -> Feedrate Rapids: 1500)
(Tool: 3 -> Feedrate Rapids: 1500)
(Tool: 4 -> Feedrate Rapids: 1500)

(Z_CUT: )
(Tool: 1 -> Z_Cut: -3.0)
(Tool: 2 -> Z_Cut: -3.0)
(Tool: 3 -> Z_Cut: -3.0)
(Tool: 4 -> Z_Cut: -3.0)

(Tools Offset: )
(Tool: 1 -> Offset Z: 0.0)
(Tool: 3 -> Offset Z: 0.0)
(Tool: 4 -> Offset Z: 0.0)
(Tool: 2 -> Offset Z: 0.0)

(Z_MOVE: )
(Tool: 1 -> Z_Move: 5.0)
(Tool: 2 -> Z_Move: 5.0)
(Tool: 3 -> Z_Move: 5.0)
(Tool: 4 -> Z_Move: 5.0)

(Z Toolchange: 15 mm)
(X,Y Toolchange: 0.0000, 0.0000 mm)
(Z Start: None mm)
(Z End: 5.0 mm)
(X,Y End: None mm)
(Steps per circle: 64)
(Preprocessor Excellon: Toolchange_Probe_MACH3)

(X range:    3.9960 ...   88.0540  mm)
(Y range:    4.4800 ...   54.9560  mm)

(Spindle Speed: 800 RPM)
G21
G90
G17
G94


G01 F300.00
  
M5             
T1
M6
G00 Z15.0000
G00 X0.0000 Y0.0000
(MSG, Change to Tool Dia = 0.7500 ||| CONNECT THE PROBE ||| Drills for this tool = 180)
M0
F75.00
G31 Z-3.0000
G92 Z0
G00 Z2.5000
F37.50
G31 Z-3.0000
G92 Z0
G00 Z5.0000
(MSG, Remove any clips or other devices used for probing. CNC work is resuming ...)
M0

G01 F300.00
M03 S800
G00 X23.1650 Y51.9640
G01 Z-3.0000
G01 Z0
G00 Z5.0000
G00 X23.1650 Y51.9640
G01 Z-3.0000
G01 Z0
G00 Z5.0000
G00 X24.4350 Y53.2340
G01 Z-3.0000
G01 Z0
G00 Z5.0000
G00 X25.7050 Y51.9640
G01 Z-3.0000
G01 Z0
G00 Z5.0000
G00 X24.4350 Y48.1540
G01 Z-3.0000
G01 Z0
G00 Z5.0000
G00 X23.1650 Y46.8840
G01 Z-3.0000
G01 Z0
G00 Z5.0000
G00 X25.7050 Y46.8840
G01 Z-3.0000
G01 Z0
G00 Z5.0000
G00 X24.4350 Y43.0740
G01 Z-3.0000
G01 Z0
G00 Z5.0000
G00 X23.1650 Y41.8040
G01 Z-3.0000
G01 Z0
G00 Z5.0000
G00 X25.7050 Y41.8040
G01 Z-3.0000
G01 Z0
G00 Z5.0000
G00 X24.4350 Y37.9940
G01 Z-3.0000
G01 Z0
G00 Z5.0000
G00 X23.1650 Y36.7240
G01 Z-3.0000
G01 Z0
G00 Z5.0000
G00 X25.7050 Y36.7240
G01 Z-3.0000
G01 Z0
G00 Z5.0000
G00 X24.4350 Y32.9140
G01 Z-3.0000
G01 Z0
G00 Z5.0000
G00 X23.1650 Y31.6440
G01 Z-3.0000
G01 Z0
G00 Z5.0000
G00 X25.7050 Y31.6440
G01 Z-3.0000
G01 Z0
G00 Z5.0000
G00 X24.4350 Y27.8340
G01 Z-3.0000
G01 Z0
G00 Z5.0000
G00 X23.1650 Y26.5640
G01 Z-3.0000
G01 Z0
G00 Z5.0000
G00 X25.7050 Y26.5640
G01 Z-3.0000
G01 Z0
G00 Z5.0000
G00 X24.4350 Y22.7540
G01 Z-3.0000
G01 Z0
G00 Z5.0000
G00 X23.1650 Y21.4840
G01 Z-3.0000
G01 Z0
G00 Z5.0000
G00 X25.7050 Y21.4840
G01 Z-3.0000
G01 Z0
G00 Z5.0000
G00 X24.4350 Y17.6740
G01 Z-3.0000
G01 Z0
G00 Z5.0000
G00 X23.1650 Y16.4040
G01 Z-3.0000
G01 Z0
G00 Z5.0000
G00 X25.7050 Y16.4040
G01 Z-3.0000
G01 Z0
G00 Z5.0000
G00 X24.4350 Y12.5940
G01 Z-3.0000
G01 Z0
G00 Z5.0000
G00 X23.1650 Y11.3240
G01 Z-3.0000
G01 Z0
G00 Z5.0000
G00 X25.7050 Y11.3240
G01 Z-3.0000
G01 Z0
G00 Z5.0000
G00 X24.4350 Y7.5140
G01 Z-3.0000
G01 Z0
G00 Z5.0000
G00 X23.1650 Y6.2440
G01 Z-3.0000
G01 Z0
G00 Z5.0000
G00 X25.7050 Y6.2440
G01 Z-3.0000
G01 Z0
G00 Z5.0000
G00 X19.9900 Y11.1760
G01 Z-3.0000
G01 Z0
G00 Z5.0000
G00 X19.9900 Y15.2400
G01 Z-3.0000
G01 Z0
G00 Z5.0000
G00 X19.9900 Y19.3040
G01 Z-3.0000
G01 Z0
G00 Z5.0000
G00 X19.9900 Y23.3680
G01 Z-3.0000
G01 Z0
G00 Z5.0000
G00 X19.9900 Y27.4320
G01 Z-3.0000
G01 Z0
G00 Z5.0000
G00 X19.9900 Y31.4960
G01 Z-3.0000
G01 Z0
G00 Z5.0000
G00 X19.9900 Y35.5600
G01 Z-3.0000
G01 Z0
G00 Z5.0000
G00 X19.9900 Y39.6240
G01 Z-3.0000
G01 Z0
G00 Z5.0000
G00 X19.9900 Y43.6880
G01 Z-3.0000
G01 Z0
G00 Z5.0000
G00 X19.9900 Y47.7520
G01 Z-3.0000
G01 Z0
G00 Z5.0000
G00 X12.3700 Y47.7520
G01 Z-3.0000
G01 Z0
G00 Z5.0000
G00 X12.3700 Y43.6880
G01 Z-3.0000
G01 Z0
G00 Z5.0000
G00 X12.3700 Y39.6240
G01 Z-3.0000
G01 Z0
G00 Z5.0000
G00 X12.3700 Y35.5600
G01 Z-3.0000
G01 Z0
G00 Z5.0000
G00 X12.3700 Y31.4960
G01 Z-3.0000
G01 Z0
G00 Z5.0000
G00 X12.3700 Y27.4320
G01 Z-3.0000
G01 Z0
G00 Z5.0000
G00 X12.3700 Y23.3680
G01 Z-3.0000
G01 Z0
G00 Z5.0000
G00 X12.3700 Y19.3040
G01 Z-3.0000
G01 Z0
G00 Z5.0000
G00 X12.3700 Y15.2400
G01 Z-3.0000
G01 Z0
G00 Z5.0000
G00 X12.3700 Y11.1760
G01 Z-3.0000
G01 Z0
G00 Z5.0000
G00 X7.0360 Y10.4140
G01 Z-3.0000
G01 Z0
G00 Z5.0000
G00 X4.4960 Y10.4140
G01 Z-3.0000
G01 Z0
G00 Z5.0000
G00 X4.4960 Y7.8740
G01 Z-3.0000
G01 Z0
G00 Z5.0000
G00 X7.0360 Y7.8740
G01 Z-3.0000
G01 Z0
G00 Z5.0000
G00 X7.0360 Y5.3340
G01 Z-3.0000
G01 Z0
G00 Z5.0000
G00 X4.4960 Y5.3340
G01 Z-3.0000
G01 Z0
G00 Z5.0000
G00 X4.4960 Y12.9540
G01 Z-3.0000
G01 Z0
G00 Z5.0000
G00 X4.4960 Y15.4940
G01 Z-3.0000
G01 Z0
G00 Z5.0000
G00 X4.4960 Y18.0340
G01 Z-3.0000
G01 Z0
G00 Z5.0000
G00 X7.0360 Y18.0340
G01 Z-3.0000
G01 Z0
G00 Z5.0000
G00 X7.0360 Y15.4940
G01 Z-3.0000
G01 Z0
G00 Z5.0000
G00 X7.0360 Y12.9540
G01 Z-3.0000
G01 Z0
G00 Z5.0000
G00 X7.0360 Y20.5740
G01 Z-3.0000
G01 Z0
G00 Z5.0000
G00 X4.4960 Y20.5740
G01 Z-3.0000
G01 Z0
G00 Z5.0000
G00 X4.4960 Y23.1140
G01 Z-3.0000
G01 Z0
G00 Z5.0000
G00 X4.4960 Y25.6540
G01 Z-3.0000
G01 Z0
G00 Z5.0000
G00 X4.4960 Y28.1940
G01 Z-3.0000
G01 Z0
G00 Z5.0000
G00 X7.0360 Y28.1940
G01 Z-3.0000
G01 Z0
G00 Z5.0000
G00 X7.0360 Y25.6540
G01 Z-3.0000
G01 Z0
G00 Z5.0000
G00 X7.0360 Y23.1140
G01 Z-3.0000
G01 Z0
G00 Z5.0000
G00 X7.0360 Y30.7340
G01 Z-3.0000
G01 Z0
G00 Z5.0000
G00 X4.4960 Y30.7340
G01 Z-3.0000
G01 Z0
G00 Z5.0000
G00 X4.4960 Y33.2740
G01 Z-3.0000
G01 Z0
G00 Z5.0000
G00 X4.4960 Y35.8140
G01 Z-3.0000
G01 Z0
G00 Z5.0000
G00 X4.4960 Y38.3540
G01 Z-3.0000
G01 Z0
G00 Z5.0000
G00 X4.4960 Y40.8940
G01 Z-3.0000
G01 Z0
G00 Z5.0000
G00 X4.4960 Y43.4340
G01 Z-3.0000
G01 Z0
G00 Z5.0000
G00 X4.4960 Y45.9740
G01 Z-3.0000
G01 Z0
G00 Z5.0000
G00 X7.0360 Y45.9740
G01 Z-3.0000
G01 Z0
G00 Z5.0000
G00 X7.0360 Y43.4340
G01 Z-3.0000
G01 Z0
G00 Z5.0000
G00 X7.0360 Y40.8940
G01 Z-3.0000
G01 Z0
G00 Z5.0000
G00 X7.0360 Y38.3540
G01 Z-3.0000
G01 Z0
G00 Z5.0000
G00 X7.0360 Y35.8140
G01 Z-3.0000
G01 Z0
G00 Z5.0000
G00 X7.0360 Y33.2740
G01 Z-3.0000
G01 Z0
G00 Z5.0000
G00 X7.0360 Y48.5140
G01 Z-3.0000
G01 Z0
G00 Z5.0000
G00 X4.4960 Y48.5140
G01 Z-3.0000
G01 Z0
G00 Z5.0000
G00 X4.4960 Y51.0540
G01 Z-3.0000
G01 Z0
G00 Z5.0000
G00 X4.4960 Y53.5940
G01 Z-3.0000
G01 Z0
G00 Z5.0000
G00 X7.0360 Y53.5940
G01 Z-3.0000
G01 Z0
G00 Z5.0000
G00 X7.0360 Y51.0540
G01 Z-3.0000
G01 Z0
G00 Z5.0000
G00 X33.1980 Y49.2760
G01 Z-3.0000
G01 Z0
G00 Z5.0000
G00 X33.1980 Y46.7360
G01 Z-3.0000
G01 Z0
G00 Z5.0000
G00 X40.8180 Y46.7360
G01 Z-3.0000
G01 Z0
G00 Z5.0000
G00 X40.8180 Y49.2760
G01 Z-3.0000
G01 Z0
G00 Z5.0000
G00 X44.8820 Y49.2760
G01 Z-3.0000
G01 Z0
G00 Z5.0000
G00 X44.8820 Y46.7360
G01 Z-3.0000
G01 Z0
G00 Z5.0000
G00 X52.5020 Y46.7360
G01 Z-3.0000
G01 Z0
G00 Z5.0000
G00 X52.5020 Y49.2760
G01 Z-3.0000
G01 Z0
G00 Z5.0000
G00 X56.5660 Y49.2760
G01 Z-3.0000
G01 Z0
G00 Z5.0000
G00 X56.5660 Y46.7360
G01 Z-3.0000
G01 Z0
G00 Z5.0000
G00 X64.1860 Y46.7360
G01 Z-3.0000
G01 Z0
G00 Z5.0000
G00 X64.1860 Y49.2760
G01 Z-3.0000
G01 Z0
G00 Z5.0000
G00 X68.2500 Y49.2760
G01 Z-3.0000
G01 Z0
G00 Z5.0000
G00 X68.2500 Y46.7360
G01 Z-3.0000
G01 Z0
G00 Z5.0000
G00 X75.8700 Y46.7360
G01 Z-3.0000
G01 Z0
G00 Z5.0000
G00 X75.8700 Y49.2760
G01 Z-3.0000
G01 Z0
G00 Z5.0000
G00 X79.9340 Y49.2760
G01 Z-3.0000
G01 Z0
G00 Z5.0000
G00 X79.9340 Y46.7360
G01 Z-3.0000
G01 Z0
G00 Z5.0000
G00 X87.5540 Y46.7360
G01 Z-3.0000
G01 Z0
G00 Z5.0000
G00 X87.5540 Y49.2760
G01 Z-3.0000
G01 Z0
G00 Z5.0000
G00 X87.1880 Y54.3560
G01 Z-3.0000
G01 Z0
G00 Z5.0000
G00 X83.6880 Y54.3560
G01 Z-3.0000
G01 Z0
G00 Z5.0000
G00 X80.1880 Y54.3560
G01 Z-3.0000
G01 Z0
G00 Z5.0000
G00 X75.5040 Y54.3560
G01 Z-3.0000
G01 Z0
G00 Z5.0000
G00 X72.0040 Y54.3560
G01 Z-3.0000
G01 Z0
G00 Z5.0000
G00 X68.5040 Y54.3560
G01 Z-3.0000
G01 Z0
G00 Z5.0000
G00 X63.8200 Y54.3560
G01 Z-3.0000
G01 Z0
G00 Z5.0000
G00 X60.3200 Y54.3560
G01 Z-3.0000
G01 Z0
G00 Z5.0000
G00 X56.8200 Y54.3560
G01 Z-3.0000
G01 Z0
G00 Z5.0000
G00 X52.1360 Y54.3560
G01 Z-3.0000
G01 Z0
G00 Z5.0000
G00 X48.6360 Y54.3560
G01 Z-3.0000
G01 Z0
G00 Z5.0000
G00 X45.1360 Y54.3560
G01 Z-3.0000
G01 Z0
G00 Z5.0000
G00 X40.4520 Y54.3560
G01 Z-3.0000
G01 Z0
G00 Z5.0000
G00 X36.9520 Y54.3560
G01 Z-3.0000
G01 Z0
G00 Z5.0000
G00 X33.4520 Y54.3560
G01 Z-3.0000
G01 Z0
G00 Z5.0000
G00 X33.1980 Y36.5760
G01 Z-3.0000
G01 Z0
G00 Z5.0000
G00 X40.8180 Y36.5760
G01 Z-3.0000
G01 Z0
G00 Z5.0000
G00 X44.8820 Y36.5760
G01 Z-3.0000
G01 Z0
G00 Z5.0000
G00 X52.5020 Y36.5760
G01 Z-3.0000
G01 Z0
G00 Z5.0000
G00 X56.5660 Y36.5760
G01 Z-3.0000
G01 Z0
G00 Z5.0000
G00 X64.1860 Y36.5760
G01 Z-3.0000
G01 Z0
G00 Z5.0000
G00 X68.2500 Y36.5760
G01 Z-3.0000
G01 Z0
G00 Z5.0000
G00 X75.8700 Y36.5760
G01 Z-3.0000
G01 Z0
G00 Z5.0000
G00 X79.9340 Y36.5760
G01 Z-3.0000
G01 Z0
G00 Z5.0000
G00 X87.5540 Y36.5760
G01 Z-3.0000
G01 Z0
G00 Z5.0000
G00 X87.5540 Y22.6060
G01 Z-3.0000
G01 Z0
G00 Z5.0000
G00 X79.9340 Y22.6060
G01 Z-3.0000
G01 Z0
G00 Z5.0000
G00 X75.8700 Y22.6060
G01 Z-3.0000
G01 Z0
G00 Z5.0000
G00 X68.2500 Y22.6060
G01 Z-3.0000
G01 Z0
G00 Z5.0000
G00 X64.1860 Y22.6060
G01 Z-3.0000
G01 Z0
G00 Z5.0000
G00 X56.5660 Y22.6060
G01 Z-3.0000
G01 Z0
G00 Z5.0000
G00 X52.5020 Y22.6060
G01 Z-3.0000
G01 Z0
G00 Z5.0000
G00 X44.8820 Y22.6060
G01 Z-3.0000
G01 Z0
G00 Z5.0000
G00 X40.8180 Y22.6060
G01 Z-3.0000
G01 Z0
G00 Z5.0000
G00 X33.1980 Y22.6060
G01 Z-3.0000
G01 Z0
G00 Z5.0000
G00 X33.1980 Y12.4460
G01 Z-3.0000
G01 Z0
G00 Z5.0000
G00 X33.1980 Y9.9060
G01 Z-3.0000
G01 Z0
G00 Z5.0000
G00 X33.4520 Y5.0800
G01 Z-3.0000
G01 Z0
G00 Z5.0000
G00 X36.9520 Y5.0800
G01 Z-3.0000
G01 Z0
G00 Z5.0000
G00 X40.4520 Y5.0800
G01 Z-3.0000
G01 Z0
G00 Z5.0000
G00 X45.1360 Y5.0800
G01 Z-3.0000
G01 Z0
G00 Z5.0000
G00 X48.6360 Y5.0800
G01 Z-3.0000
G01 Z0
G00 Z5.0000
G00 X52.1360 Y5.0800
G01 Z-3.0000
G01 Z0
G00 Z5.0000
G00 X56.8200 Y5.0800
G01 Z-3.0000
G01 Z0
G00 Z5.0000
G00 X60.3200 Y5.0800
G01 Z-3.0000
G01 Z0
G00 Z5.0000
G00 X63.8200 Y5.0800
G01 Z-3.0000
G01 Z0
G00 Z5.0000
G00 X68.5040 Y5.0800
G01 Z-3.0000
G01 Z0
G00 Z5.0000
G00 X72.0040 Y5.0800
G01 Z-3.0000
G01 Z0
G00 Z5.0000
G00 X75.5040 Y5.0800
G01 Z-3.0000
G01 Z0
G00 Z5.0000
G00 X80.1880 Y5.0800
G01 Z-3.0000
G01 Z0
G00 Z5.0000
G00 X83.6880 Y5.0800
G01 Z-3.0000
G01 Z0
G00 Z5.0000
G00 X87.1880 Y5.0800
G01 Z-3.0000
G01 Z0
G00 Z5.0000
G00 X87.5540 Y9.9060
G01 Z-3.0000
G01 Z0
G00 Z5.0000
G00 X87.5540 Y12.4460
G01 Z-3.0000
G01 Z0
G00 Z5.0000
G00 X79.9340 Y12.4460
G01 Z-3.0000
G01 Z0
G00 Z5.0000
G00 X79.9340 Y9.9060
G01 Z-3.0000
G01 Z0
G00 Z5.0000
G00 X75.8700 Y9.9060
G01 Z-3.0000
G01 Z0
G00 Z5.0000
G00 X75.8700 Y12.4460
G01 Z-3.0000
G01 Z0
G00 Z5.0000
G00 X68.2500 Y12.4460
G01 Z-3.0000
G01 Z0
G00 Z5.0000
G00 X68.2500 Y9.9060
G01 Z-3.0000
G01 Z0
G00 Z5.0000
G00 X64.1860 Y9.9060
G01 Z-3.0000
G01 Z0
G00 Z5.0000
G00 X64.1860 Y12.4460
G01 Z-3.0000
G01 Z0
G00 Z5.0000
G00 X56.5660 Y12.4460
G01 Z-3.0000
G01 Z0
G00 Z5.0000
G00 X56.5660 Y9.9060
G01 Z-3.0000
G01 Z0
G00 Z5.0000
G00 X52.5020 Y9.9060
G01 Z-3.0000
G01 Z0
G00 Z5.0000
G00 X52.5020 Y12.4460
G01 Z-3.0000
G01 Z0
G00 Z5.0000
G00 X44.8820 Y12.4460
G01 Z-3.0000
G01 Z0
G00 Z5.0000
G00 X44.8820 Y9.9060
G01 Z-3.0000
G01 Z0
G00 Z5.0000
G00 X40.8180 Y9.9060
G01 Z-3.0000
G01 Z0
G00 Z5.0000
G00 X40.8180 Y12.4460
G01 Z-3.0000
G01 Z0
G00 Z5.0000
M05
G00 Z5.00


