(G-CODE GENERATED BY FLATCAM v8.994 - www.flatcam.org - Version Date: 2020/11/7)

(Name: pi-relay-board-PTH.drl_cnc)
(Type: G-code from Geometry)
(Units: MM)

(Created on Thursday, 13 June 2024 at 10:11)

(This preprocessor is used with MACH3 with probing height.)


(TOOLS DIAMETER: )
(Tool: 1 -> Dia: 0.8)
(Tool: 2 -> Dia: 1.0)
(Tool: 3 -> Dia: 1.3)

(FEEDRATE Z: )
(Tool: 1 -> Feedrate: 300)
(Tool: 2 -> Feedrate: 300)
(Tool: 3 -> Feedrate: 300)

(FEEDRATE RAPIDS: )
(Tool: 1 -> Feedrate Rapids: 1500)
(Tool: 2 -> Feedrate Rapids: 1500)
(Tool: 3 -> Feedrate Rapids: 1500)

(Z_CUT: )
(Tool: 1 -> Z_Cut: -3.0)
(Tool: 2 -> Z_Cut: -3.0)
(Tool: 3 -> Z_Cut: -3.0)

(Tools Offset: )
(Tool: 2 -> Offset Z: 0.0)
(Tool: 3 -> Offset Z: 0.0)
(Tool: 1 -> Offset Z: 0.0)

(Z_MOVE: )
(Tool: 1 -> Z_Move: 5.0)
(Tool: 2 -> Z_Move: 5.0)
(Tool: 3 -> Z_Move: 5.0)

(Z Toolchange: 15 mm)
(X,Y Toolchange: 0.0000, 0.0000 mm)
(Z Start: None mm)
(Z End: 5.0 mm)
(X,Y End: None mm)
(Steps per circle: 64)
(Preprocessor Excellon: Toolchange_Probe_MACH3)

(X range:   12.3530 ...   96.0750  mm)
(Y range:    3.9500 ...   56.3010  mm)

(Spindle Speed: 800 RPM)
G21
G90
G17
G94


G01 F300.00
  
M5             
T1
M6
G00 Z15.0000
G00 X0.0000 Y0.0000
(MSG, Change to Tool Dia = 0.8000 ||| CONNECT THE PROBE ||| Drills for this tool = 170)
M0
F75.00
G31 Z0.0000
G92 Z0
G00 Z2.5000
F37.50
G31 Z0.0000
G92 Z0
G00 Z5.0000
(MSG, Remove any clips or other devices used for probing. CNC work is resuming ...)
M0

G01 F300.00
M03 S800
G00 X20.7270 Y48.3060
G01 Z-3.0000
G01 Z0
G00 Z5.0000
G00 X20.7270 Y48.3060
G01 Z-3.0000
G01 Z0
G00 Z5.0000
G00 X20.7270 Y44.2420
G01 Z-3.0000
G01 Z0
G00 Z5.0000
G00 X20.7270 Y40.1780
G01 Z-3.0000
G01 Z0
G00 Z5.0000
G00 X20.7270 Y36.1140
G01 Z-3.0000
G01 Z0
G00 Z5.0000
G00 X20.7270 Y32.0500
G01 Z-3.0000
G01 Z0
G00 Z5.0000
G00 X20.7270 Y27.9860
G01 Z-3.0000
G01 Z0
G00 Z5.0000
G00 X20.7270 Y23.9220
G01 Z-3.0000
G01 Z0
G00 Z5.0000
G00 X20.7270 Y19.8580
G01 Z-3.0000
G01 Z0
G00 Z5.0000
G00 X20.7270 Y15.7940
G01 Z-3.0000
G01 Z0
G00 Z5.0000
G00 X20.7270 Y11.7300
G01 Z-3.0000
G01 Z0
G00 Z5.0000
G00 X15.3930 Y10.9680
G01 Z-3.0000
G01 Z0
G00 Z5.0000
G00 X15.3930 Y13.5080
G01 Z-3.0000
G01 Z0
G00 Z5.0000
G00 X15.3930 Y16.0480
G01 Z-3.0000
G01 Z0
G00 Z5.0000
G00 X12.8530 Y16.0480
G01 Z-3.0000
G01 Z0
G00 Z5.0000
G00 X12.8530 Y13.5080
G01 Z-3.0000
G01 Z0
G00 Z5.0000
G00 X12.8530 Y10.9680
G01 Z-3.0000
G01 Z0
G00 Z5.0000
G00 X12.8530 Y8.4280
G01 Z-3.0000
G01 Z0
G00 Z5.0000
G00 X12.8530 Y5.8880
G01 Z-3.0000
G01 Z0
G00 Z5.0000
G00 X15.3930 Y5.8880
G01 Z-3.0000
G01 Z0
G00 Z5.0000
G00 X15.3930 Y8.4280
G01 Z-3.0000
G01 Z0
G00 Z5.0000
G00 X15.3930 Y18.5880
G01 Z-3.0000
G01 Z0
G00 Z5.0000
G00 X15.3930 Y21.1280
G01 Z-3.0000
G01 Z0
G00 Z5.0000
G00 X15.3930 Y23.6680
G01 Z-3.0000
G01 Z0
G00 Z5.0000
G00 X15.3930 Y26.2080
G01 Z-3.0000
G01 Z0
G00 Z5.0000
G00 X12.8530 Y26.2080
G01 Z-3.0000
G01 Z0
G00 Z5.0000
G00 X12.8530 Y23.6680
G01 Z-3.0000
G01 Z0
G00 Z5.0000
G00 X12.8530 Y21.1280
G01 Z-3.0000
G01 Z0
G00 Z5.0000
G00 X12.8530 Y18.5880
G01 Z-3.0000
G01 Z0
G00 Z5.0000
G00 X12.8530 Y28.7480
G01 Z-3.0000
G01 Z0
G00 Z5.0000
G00 X12.8530 Y31.2880
G01 Z-3.0000
G01 Z0
G00 Z5.0000
G00 X15.3930 Y31.2880
G01 Z-3.0000
G01 Z0
G00 Z5.0000
G00 X15.3930 Y28.7480
G01 Z-3.0000
G01 Z0
G00 Z5.0000
G00 X15.3930 Y33.8280
G01 Z-3.0000
G01 Z0
G00 Z5.0000
G00 X15.3930 Y36.3680
G01 Z-3.0000
G01 Z0
G00 Z5.0000
G00 X15.3930 Y38.9080
G01 Z-3.0000
G01 Z0
G00 Z5.0000
G00 X15.3930 Y41.4480
G01 Z-3.0000
G01 Z0
G00 Z5.0000
G00 X15.3930 Y43.9880
G01 Z-3.0000
G01 Z0
G00 Z5.0000
G00 X15.3930 Y46.5280
G01 Z-3.0000
G01 Z0
G00 Z5.0000
G00 X15.3930 Y49.0680
G01 Z-3.0000
G01 Z0
G00 Z5.0000
G00 X15.3930 Y51.6080
G01 Z-3.0000
G01 Z0
G00 Z5.0000
G00 X12.8530 Y51.6080
G01 Z-3.0000
G01 Z0
G00 Z5.0000
G00 X12.8530 Y49.0680
G01 Z-3.0000
G01 Z0
G00 Z5.0000
G00 X12.8530 Y46.5280
G01 Z-3.0000
G01 Z0
G00 Z5.0000
G00 X12.8530 Y43.9880
G01 Z-3.0000
G01 Z0
G00 Z5.0000
G00 X12.8530 Y41.4480
G01 Z-3.0000
G01 Z0
G00 Z5.0000
G00 X12.8530 Y38.9080
G01 Z-3.0000
G01 Z0
G00 Z5.0000
G00 X12.8530 Y36.3680
G01 Z-3.0000
G01 Z0
G00 Z5.0000
G00 X12.8530 Y33.8280
G01 Z-3.0000
G01 Z0
G00 Z5.0000
G00 X28.3470 Y32.0500
G01 Z-3.0000
G01 Z0
G00 Z5.0000
G00 X31.7870 Y32.2540
G01 Z-3.0000
G01 Z0
G00 Z5.0000
G00 X34.3270 Y32.2540
G01 Z-3.0000
G01 Z0
G00 Z5.0000
G00 X36.8670 Y32.2540
G01 Z-3.0000
G01 Z0
G00 Z5.0000
G00 X36.8570 Y27.7000
G01 Z-3.0000
G01 Z0
G00 Z5.0000
G00 X34.3170 Y27.7000
G01 Z-3.0000
G01 Z0
G00 Z5.0000
G00 X31.7770 Y27.7000
G01 Z-3.0000
G01 Z0
G00 Z5.0000
G00 X28.3470 Y27.9860
G01 Z-3.0000
G01 Z0
G00 Z5.0000
G00 X28.3470 Y23.9220
G01 Z-3.0000
G01 Z0
G00 Z5.0000
G00 X31.7870 Y23.1100
G01 Z-3.0000
G01 Z0
G00 Z5.0000
G00 X34.3270 Y23.1100
G01 Z-3.0000
G01 Z0
G00 Z5.0000
G00 X36.8670 Y23.1100
G01 Z-3.0000
G01 Z0
G00 Z5.0000
G00 X36.8670 Y18.5380
G01 Z-3.0000
G01 Z0
G00 Z5.0000
G00 X34.3270 Y18.5380
G01 Z-3.0000
G01 Z0
G00 Z5.0000
G00 X31.7870 Y18.5380
G01 Z-3.0000
G01 Z0
G00 Z5.0000
G00 X28.3470 Y19.8580
G01 Z-3.0000
G01 Z0
G00 Z5.0000
G00 X28.3470 Y15.7940
G01 Z-3.0000
G01 Z0
G00 Z5.0000
G00 X31.7820 Y14.0000
G01 Z-3.0000
G01 Z0
G00 Z5.0000
G00 X34.3220 Y14.0000
G01 Z-3.0000
G01 Z0
G00 Z5.0000
G00 X36.8620 Y14.0000
G01 Z-3.0000
G01 Z0
G00 Z5.0000
G00 X36.8670 Y9.3940
G01 Z-3.0000
G01 Z0
G00 Z5.0000
G00 X34.3270 Y9.3940
G01 Z-3.0000
G01 Z0
G00 Z5.0000
G00 X31.7870 Y9.3940
G01 Z-3.0000
G01 Z0
G00 Z5.0000
G00 X28.3470 Y11.7300
G01 Z-3.0000
G01 Z0
G00 Z5.0000
G00 X43.7590 Y11.3310
G01 Z-3.0000
G01 Z0
G00 Z5.0000
G00 X51.3790 Y11.3310
G01 Z-3.0000
G01 Z0
G00 Z5.0000
G00 X54.8080 Y11.3310
G01 Z-3.0000
G01 Z0
G00 Z5.0000
G00 X53.6650 Y4.6090
G01 Z-3.0000
G01 Z0
G00 Z5.0000
G00 X48.5850 Y4.6090
G01 Z-3.0000
G01 Z0
G00 Z5.0000
G00 X58.7450 Y4.6000
G01 Z-3.0000
G01 Z0
G00 Z5.0000
G00 X63.8250 Y4.6000
G01 Z-3.0000
G01 Z0
G00 Z5.0000
G00 X68.9050 Y4.6000
G01 Z-3.0000
G01 Z0
G00 Z5.0000
G00 X73.9850 Y4.6000
G01 Z-3.0000
G01 Z0
G00 Z5.0000
G00 X79.0650 Y4.6000
G01 Z-3.0000
G01 Z0
G00 Z5.0000
G00 X84.1450 Y4.6000
G01 Z-3.0000
G01 Z0
G00 Z5.0000
G00 X89.2200 Y4.6000
G01 Z-3.0000
G01 Z0
G00 Z5.0000
G00 X94.3000 Y4.6000
G01 Z-3.0000
G01 Z0
G00 Z5.0000
G00 X95.5750 Y11.3310
G01 Z-3.0000
G01 Z0
G00 Z5.0000
G00 X87.9550 Y11.3310
G01 Z-3.0000
G01 Z0
G00 Z5.0000
G00 X84.5260 Y11.3310
G01 Z-3.0000
G01 Z0
G00 Z5.0000
G00 X76.9060 Y11.3310
G01 Z-3.0000
G01 Z0
G00 Z5.0000
G00 X73.4770 Y11.3310
G01 Z-3.0000
G01 Z0
G00 Z5.0000
G00 X65.8570 Y11.3310
G01 Z-3.0000
G01 Z0
G00 Z5.0000
G00 X62.4280 Y11.3310
G01 Z-3.0000
G01 Z0
G00 Z5.0000
G00 X62.4280 Y21.4910
G01 Z-3.0000
G01 Z0
G00 Z5.0000
G00 X62.4280 Y24.0310
G01 Z-3.0000
G01 Z0
G00 Z5.0000
G00 X65.8570 Y24.0310
G01 Z-3.0000
G01 Z0
G00 Z5.0000
G00 X65.8570 Y21.4910
G01 Z-3.0000
G01 Z0
G00 Z5.0000
G00 X73.4770 Y21.4910
G01 Z-3.0000
G01 Z0
G00 Z5.0000
G00 X73.4770 Y24.0310
G01 Z-3.0000
G01 Z0
G00 Z5.0000
G00 X76.9060 Y24.0310
G01 Z-3.0000
G01 Z0
G00 Z5.0000
G00 X76.9060 Y21.4910
G01 Z-3.0000
G01 Z0
G00 Z5.0000
G00 X84.5260 Y21.4910
G01 Z-3.0000
G01 Z0
G00 Z5.0000
G00 X84.5260 Y24.0310
G01 Z-3.0000
G01 Z0
G00 Z5.0000
G00 X87.9550 Y24.0310
G01 Z-3.0000
G01 Z0
G00 Z5.0000
G00 X87.9550 Y21.4910
G01 Z-3.0000
G01 Z0
G00 Z5.0000
G00 X95.5750 Y21.4910
G01 Z-3.0000
G01 Z0
G00 Z5.0000
G00 X95.5750 Y24.0310
G01 Z-3.0000
G01 Z0
G00 Z5.0000
G00 X95.5750 Y36.2200
G01 Z-3.0000
G01 Z0
G00 Z5.0000
G00 X95.5750 Y38.7600
G01 Z-3.0000
G01 Z0
G00 Z5.0000
G00 X87.9550 Y38.7600
G01 Z-3.0000
G01 Z0
G00 Z5.0000
G00 X87.9550 Y36.2200
G01 Z-3.0000
G01 Z0
G00 Z5.0000
G00 X84.6530 Y36.2200
G01 Z-3.0000
G01 Z0
G00 Z5.0000
G00 X84.6530 Y38.7600
G01 Z-3.0000
G01 Z0
G00 Z5.0000
G00 X77.0330 Y38.7600
G01 Z-3.0000
G01 Z0
G00 Z5.0000
G00 X77.0330 Y36.2200
G01 Z-3.0000
G01 Z0
G00 Z5.0000
G00 X73.4770 Y36.2200
G01 Z-3.0000
G01 Z0
G00 Z5.0000
G00 X73.4770 Y38.7600
G01 Z-3.0000
G01 Z0
G00 Z5.0000
G00 X65.8570 Y38.7600
G01 Z-3.0000
G01 Z0
G00 Z5.0000
G00 X65.8570 Y36.2200
G01 Z-3.0000
G01 Z0
G00 Z5.0000
G00 X62.3010 Y36.2200
G01 Z-3.0000
G01 Z0
G00 Z5.0000
G00 X62.3010 Y38.7600
G01 Z-3.0000
G01 Z0
G00 Z5.0000
G00 X54.6810 Y38.7600
G01 Z-3.0000
G01 Z0
G00 Z5.0000
G00 X54.6810 Y36.2200
G01 Z-3.0000
G01 Z0
G00 Z5.0000
G00 X51.3790 Y36.2200
G01 Z-3.0000
G01 Z0
G00 Z5.0000
G00 X51.3790 Y38.7600
G01 Z-3.0000
G01 Z0
G00 Z5.0000
G00 X43.7590 Y38.7600
G01 Z-3.0000
G01 Z0
G00 Z5.0000
G00 X43.7590 Y36.2200
G01 Z-3.0000
G01 Z0
G00 Z5.0000
G00 X36.8800 Y36.9000
G01 Z-3.0000
G01 Z0
G00 Z5.0000
G00 X34.3400 Y36.9000
G01 Z-3.0000
G01 Z0
G00 Z5.0000
G00 X31.8000 Y36.9000
G01 Z-3.0000
G01 Z0
G00 Z5.0000
G00 X28.3470 Y36.1140
G01 Z-3.0000
G01 Z0
G00 Z5.0000
G00 X28.3470 Y40.1780
G01 Z-3.0000
G01 Z0
G00 Z5.0000
G00 X31.7870 Y41.5250
G01 Z-3.0000
G01 Z0
G00 Z5.0000
G00 X34.3270 Y41.5250
G01 Z-3.0000
G01 Z0
G00 Z5.0000
G00 X36.8670 Y41.5250
G01 Z-3.0000
G01 Z0
G00 Z5.0000
G00 X36.8670 Y46.0970
G01 Z-3.0000
G01 Z0
G00 Z5.0000
G00 X34.3270 Y46.0970
G01 Z-3.0000
G01 Z0
G00 Z5.0000
G00 X31.7870 Y46.0970
G01 Z-3.0000
G01 Z0
G00 Z5.0000
G00 X28.3470 Y44.2420
G01 Z-3.0000
G01 Z0
G00 Z5.0000
G00 X28.3470 Y48.3060
G01 Z-3.0000
G01 Z0
G00 Z5.0000
G00 X31.7870 Y55.0120
G01 Z-3.0000
G01 Z0
G00 Z5.0000
G00 X34.3270 Y55.0120
G01 Z-3.0000
G01 Z0
G00 Z5.0000
G00 X36.8670 Y55.0120
G01 Z-3.0000
G01 Z0
G00 Z5.0000
G00 X43.7590 Y48.9200
G01 Z-3.0000
G01 Z0
G00 Z5.0000
G00 X51.3790 Y48.9200
G01 Z-3.0000
G01 Z0
G00 Z5.0000
G00 X54.6810 Y48.9200
G01 Z-3.0000
G01 Z0
G00 Z5.0000
G00 X53.6650 Y55.6510
G01 Z-3.0000
G01 Z0
G00 Z5.0000
G00 X48.5850 Y55.6510
G01 Z-3.0000
G01 Z0
G00 Z5.0000
G00 X58.7450 Y55.6510
G01 Z-3.0000
G01 Z0
G00 Z5.0000
G00 X63.8250 Y55.6510
G01 Z-3.0000
G01 Z0
G00 Z5.0000
G00 X68.9050 Y55.6510
G01 Z-3.0000
G01 Z0
G00 Z5.0000
G00 X73.9850 Y55.6510
G01 Z-3.0000
G01 Z0
G00 Z5.0000
G00 X79.0650 Y55.6510
G01 Z-3.0000
G01 Z0
G00 Z5.0000
G00 X84.1450 Y55.6510
G01 Z-3.0000
G01 Z0
G00 Z5.0000
G00 X89.2250 Y55.6510
G01 Z-3.0000
G01 Z0
G00 Z5.0000
G00 X94.3050 Y55.6510
G01 Z-3.0000
G01 Z0
G00 Z5.0000
G00 X95.5750 Y48.9200
G01 Z-3.0000
G01 Z0
G00 Z5.0000
G00 X87.9550 Y48.9200
G01 Z-3.0000
G01 Z0
G00 Z5.0000
G00 X84.6530 Y48.9200
G01 Z-3.0000
G01 Z0
G00 Z5.0000
G00 X77.0330 Y48.9200
G01 Z-3.0000
G01 Z0
G00 Z5.0000
G00 X73.4770 Y48.9200
G01 Z-3.0000
G01 Z0
G00 Z5.0000
G00 X65.8570 Y48.9200
G01 Z-3.0000
G01 Z0
G00 Z5.0000
G00 X62.3010 Y48.9200
G01 Z-3.0000
G01 Z0
G00 Z5.0000
G00 X54.8080 Y24.0310
G01 Z-3.0000
G01 Z0
G00 Z5.0000
G00 X54.8080 Y21.4910
G01 Z-3.0000
G01 Z0
G00 Z5.0000
G00 X51.3790 Y21.4910
G01 Z-3.0000
G01 Z0
G00 Z5.0000
G00 X51.3790 Y24.0310
G01 Z-3.0000
G01 Z0
G00 Z5.0000
G00 X43.7590 Y24.0310
G01 Z-3.0000
G01 Z0
G00 Z5.0000
G00 X43.7590 Y21.4910
G01 Z-3.0000
G01 Z0
G00 Z5.0000
G00 X15.3930 Y54.1480
G01 Z-3.0000
G01 Z0
G00 Z5.0000
G00 X12.8530 Y54.1480
G01 Z-3.0000
G01 Z0
G00 Z5.0000
M05
G00 Z5.00


